svg/business/presentation_1_fill.svg

<?xml version="1.0" encoding="UTF-8"?>
<svg width="24px" height="24px" viewBox="0 0 24 24" version="1.1" xmlns="http://www.w3.org/2000/svg" xmlns:xlink="http://www.w3.org/1999/xlink">
    <title>presentation_1_fill</title>
    <g id="页面-1" stroke="none" stroke-width="1" fill="none" fill-rule="evenodd">
        <g id="Business" transform="translate(-768.000000, -48.000000)" fill-rule="nonzero">
            <g id="presentation_1_fill" transform="translate(768.000000, 48.000000)">
                <path d="M24,0 L24,24 L0,24 L0,0 L24,0 Z M12.5934901,23.257841 L12.5819402,23.2595131 L12.5108777,23.2950439 L12.4918791,23.2987469 L12.4918791,23.2987469 L12.4767152,23.2950439 L12.4056548,23.2595131 C12.3958229,23.2563662 12.3870493,23.2590235 12.3821421,23.2649074 L12.3780323,23.275831 L12.360941,23.7031097 L12.3658947,23.7234994 L12.3769048,23.7357139 L12.4804777,23.8096931 L12.4953491,23.8136134 L12.4953491,23.8136134 L12.5071152,23.8096931 L12.6106902,23.7357139 L12.6232938,23.7196733 L12.6232938,23.7196733 L12.6266527,23.7031097 L12.609561,23.275831 C12.6075724,23.2657013 12.6010112,23.2592993 12.5934901,23.257841 L12.5934901,23.257841 Z M12.8583906,23.1452862 L12.8445485,23.1473072 L12.6598443,23.2396597 L12.6498822,23.2499052 L12.6498822,23.2499052 L12.6471943,23.2611114 L12.6650943,23.6906389 L12.6699349,23.7034178 L12.6699349,23.7034178 L12.678386,23.7104931 L12.8793402,23.8032389 C12.8914285,23.8068999 12.9022333,23.8029875 12.9078286,23.7952264 L12.9118235,23.7811639 L12.8776777,23.1665331 C12.8752882,23.1545897 12.8674102,23.1470016 12.8583906,23.1452862 L12.8583906,23.1452862 Z M12.1430473,23.1473072 C12.1332178,23.1423925 12.1221763,23.1452606 12.1156365,23.1525954 L12.1099173,23.1665331 L12.0757714,23.7811639 C12.0751323,23.7926639 12.0828099,23.8018602 12.0926481,23.8045676 L12.108256,23.8032389 L12.3092106,23.7104931 L12.3186497,23.7024347 L12.3186497,23.7024347 L12.3225043,23.6906389 L12.340401,23.2611114 L12.337245,23.2485176 L12.337245,23.2485176 L12.3277531,23.2396597 L12.1430473,23.1473072 Z" id="MingCute" fill-rule="nonzero"></path>
                <path d="M21,3 C21.5523,3 22,3.44772 22,4 C22,4.55228 21.5523,5 21,5 L21,16 C21,17.1046 20.1046,18 19,18 L13.9453,18 L16.2382,20.2929 C16.6287,20.6834 16.6287,21.3166 16.2382,21.7071 C15.8476,22.0976 15.2145,22.0976 14.824,21.7071 L11.9955,18.8787 L9.1671,21.7071 C8.77657,22.0976 8.14341,22.0976 7.75288,21.7071 C7.36236,21.3166 7.36236,20.6834 7.75288,20.2929 L10.0458,18 L5,18 C3.89543,18 3,17.1046 3,16 L3,5 C2.44772,5 2,4.55228 2,4 C2,3.44772 2.44772,3 3,3 L21,3 Z M16,7 C15.48715,7 15.0644908,7.38604429 15.0067275,7.88337975 L15,8 L15,13 C15,13.5523 15.4477,14 16,14 C16.51285,14 16.9355092,13.613973 16.9932725,13.1166239 L17,13 L17,8 C17,7.44772 16.5523,7 16,7 Z M12,9 C11.4477,9 11,9.44772 11,10 L11,13 C11,13.5523 11.4477,14 12,14 C12.5523,14 13,13.5523 13,13 L13,10 C13,9.44772 12.5523,9 12,9 Z M8,11 C7.44772,11 7,11.4477 7,12 L7,13 C7,13.5523 7.44772,14 8,14 C8.55228,14 9,13.5523 9,13 L9,12 C9,11.4477 8.55228,11 8,11 Z" id="形状" fill="#09244B"></path>
            </g>
        </g>
    </g>
</svg>

<svg xmlns="http://www.w3.org/2000/svg" width="24" height="24"><g fill="none" fill-rule="nonzero"><path d="M24 0v24H0V0zM12.593 23.258l-.011.002-.071.035-.02.004-.014-.004-.071-.035c-.01-.004-.019-.001-.024.005l-.004.01-.017.428.005.02.01.013.104.074.015.004.012-.004.104-.074.012-.016.004-.017-.017-.427c-.002-.01-.009-.017-.017-.018m.265-.113-.013.002-.185.093-.01.01-.003.011.018.43.005.012.008.007.201.093c.012.004.023 0 .029-.008l.004-.014-.034-.614c-.003-.012-.01-.02-.02-.022m-.715.002a.023.023 0 0 0-.027.006l-.006.014-.034.614c0 .012.007.02.017.024l.015-.002.201-.093.01-.008.004-.011.017-.43-.003-.012-.01-.01z"/><path fill="#09244B" d="M21 3a1 1 0 1 1 0 2v11a2 2 0 0 1-2 2h-5.055l2.293 2.293a1 1 0 0 1-1.414 1.414l-2.828-2.828-2.829 2.828a1 1 0 0 1-1.414-1.414L10.046 18H5a2 2 0 0 1-2-2V5a1 1 0 0 1 0-2zm-5 4a1 1 0 0 0-.993.883L15 8v5a1 1 0 0 0 1.993.117L17 13V8a1 1 0 0 0-1-1m-4 2a1 1 0 0 0-1 1v3a1 1 0 1 0 2 0v-3a1 1 0 0 0-1-1m-4 2a1 1 0 0 0-1 1v1a1 1 0 1 0 2 0v-1a1 1 0 0 0-1-1"/></g></svg>
